X:1
T: Miss Gibson's Strathspey
C:
R:Strathspey
Q: 128
K:A
M:4/4
L:1/16
E2|:c4 B2A2 E6 E2|F3E FA3 E4 F2G2|A4 A4 A4 A2B2|B8 e4 E4|
c4 B2A2 E6 E2|F3E FA3 E4 F2G2|A4 A4 B4 e4|A12 E4|
d4 d3c B4 E4|e6 d2 c4 d2e2|f4 e4 d4 c4|c8 B4 e2d2|
c4 B2A2 E6 E2|F3E FA3 E4 F2G2|A4 A4 B4 e4|A12:|
